!!!!SEGMENT: pl-cz--iii-753--001-015_zebrowski-marcin-jozef--vesperae-in-d-gloria-patri.krn
!!!cenid: 17xx:2386
!!!COM: Żebrowski, Marcin Józef
!!!COM-rismid: pe30020322
!!!CDT: 1702-1770/06/29
!!!CNT: Polish
!!!OPR: Vesperae in D
!!!OTL: Gloria patri
!!!OMV: 015
!!!PDT:
!!!AGN:
!!!SMS-siglum: PL-CZ
!!!SMS-shelfmark: III-753
!!!SMS-shelfwork: 001-015 M
!!!SMS-variant:
!!!SMS-altvar:
!!!NIFC-rismid: 300033505
!!!URL-scan: https://repozytorium.nifc.pl/islandora/object/pl-cz%3A25492/datastream/PDF/view
!!!ONB-nifc: UWAGA: części Nieszporów: 1. Dixit Dominus, 2. Confitebor, 3. Beatus vir, 4. Laudate pueri, 5. Laudate Dominum, 6. Credidi, 7. In convertendo, 8. Domine probasti me, 9. Laetatus sum, 10. Nisi Dominus, 11. Lauda Jerusalem, 12. Magnificat, 13. Quia respexit, 14. Deposuit potentes, 15. Gloria patri
!!!key: D
**kern	**fba	**kern	**kern	**kern	**text	**kern	**text	**kern	**text	**kern	**text	**kern	**kern	**kern
*	*	*group3	*group3	*group2	*	*group2	*	*group2	*	*group2	*	*group1	*group1	*
*part10	*part10	*part9	*part8	*part7	*part7	*part6	*part6	*part5	*part5	*part4	*part4	*part3	*part2	*part1
*staff10	*	*staff9	*staff8	*staff7	*staff7	*staff6	*staff6	*staff5	*staff5	*staff4	*staff4	*staff3	*staff2	*staff1
*I"Organo.	*	*I"Violino Secondo.	*I"Violino Primo.	*I"Baſso.	*	*I"Tenore.	*	*I"Alto.	*	*I"Canto.	*	*I"Clarino Secondo ex D.	*I"Clarino Primo ex D	*I"Baſsone.
*I'org	*	*I'vl 2	*I'vl 1	*I'B	*	*I'T	*	*I'A	*	*I'S	*	*I'clno 2 in D	*I'clno 1 in D	*I'fag
*Iorgan	*	*Ivioln	*Ivioln	*Ibass	*	*Itenor	*	*Ialto	*	*Isoprn	*	*Iclrno	*Iclrno	*Ifagot
*ICklav	*	*ICstr	*ICstr	*ICvox	*	*ICvox	*	*ICvox	*	*ICvox	*	*ICbras	*ICbras	*ICww
*clefF4	*	*clefG2	*clefG2	*clefF4	*	*clefC4	*	*clefC3	*	*clefC1	*	*clefG2	*clefG2	*clefF4
*	*	*	*	*	*	*	*	*	*	*	*	*ITrd-1c-2	*ITrd-1c-2	*
*k[f#c#]	*	*k[f#c#]	*k[f#c#]	*k[f#c#]	*	*k[c#f#]	*	*k[f#c#]	*	*k[c#f#]	*	*k[f#c#]	*k[f#c#]	*k[f#c#]
*D:	*	*D:	*D:	*D:	*	*D:	*	*D:	*	*D:	*	*D:	*D:	*D:
*M3/4	*	*M3/4	*M3/4	*M3/4	*	*M3/4	*	*M3/4	*	*M3/4	*	*M3/4	*M3/4	*M3/4
=1	=1	=1	=1	=1	=1	=1	=1	=1	=1	=1	=1	=1	=1	=1
*2\right	*	*	*	*	*	*	*	*	*	*	*	*	*	*2\right
!LO:TX:b:i:t=Solo.	!	!LO:TX:t=P:problem:mixed beam	!	!LO:TX:a:t=5.	!	!LO:TX:a:t=5.	!	!LO:TX:a:t=5.	!	!LO:TX:a:t=5	!	!LO:TX:a:t=5.	!LO:TX:a:t=5.	!LO:TX:a:i:t=Solo
!LO:TX:b:Bi:t=Grave	!	!LO:TX:b:Bi:t=Grave.	!LO:TX:b:Bi:t=Grave.	!LO:TX:a:Bi:t=Grave.	!	!LO:TX:b:Bi:t=Grave.	!	!LO:TX:a:t=Grave	!	!LO:TX:b:Bi:t=Grave	!	!LO:TX:b:Bi:t=Grave.	!LO:TX:b:Bi:t=Grave	!LO:TX:a:Bi:t=Grave.
2G\	.	8.g\L	8.g/L	0.r	.	0.r	.	0.r	.	0.r	.	0.r	0.r	2G\
.	.	16a\K	16a/Jk	.	.	.	.	.	.	.	.	.	.	.
.	.	8.b\	8.b\L	.	.	.	.	.	.	.	.	.	.	.
.	.	16ccn\K	16ccn\Jk	.	.	.	.	.	.	.	.	.	.	.
!	!	!	!LO:TX:t=P:problem:mixed beam	!	!	!	!	!	!	!	!	!	!	!
4F#\	6	8.dd\	8.dd\L	.	.	.	.	.	.	.	.	.	.	4F#\
.	.	16d/Jk	16d/Jk	.	.	.	.	.	.	.	.	.	.	.
=2	=2	=2	=2	=2	=2	=2	=2	=2	=2	=2	=2	=2	=2	=2
2E\	.	8.e/L	8.e/L	.	.	.	.	.	.	.	.	.	.	2E\
.	.	16f#/K	16f#/Jk	.	.	.	.	.	.	.	.	.	.	.
.	.	8.g/	8.g/L	.	.	.	.	.	.	.	.	.	.	.
.	.	16a/K	16a/Jk	.	.	.	.	.	.	.	.	.	.	.
4D/	6	8.b/	8.b/L	.	.	.	.	.	.	.	.	.	.	4D/
.	.	16B/Jk	16B/Jk	.	.	.	.	.	.	.	.	.	.	.
=3	=3	=3	=3	=3	=3	=3	=3	=3	=3	=3	=3	=3	=3	=3
2Cn/	.	8.cn/L	8.cn/L	.	.	.	.	.	.	.	.	.	.	2Cn/
.	.	16d/K	16d/K	.	.	.	.	.	.	.	.	.	.	.
.	.	8.e/	8.e/	.	.	.	.	.	.	.	.	.	.	.
.	.	16f#/K	16f#/Jk	.	.	.	.	.	.	.	.	.	.	.
4BB/	6	8.g/	8.g/L	.	.	.	.	.	.	.	.	.	.	4BB/
.	.	16G/Jk	16G/Jk	.	.	.	.	.	.	.	.	.	.	.
=4	=4	=4	=4	=4	=4	=4	=4	=4	=4	=4	=4	=4	=4	=4
8Cn/L	6 5	8cn/L	8cn/L	.	.	.	.	.	.	.	.	.	.	8Cn/L
8AA/	.	8A/	8A/J	.	.	.	.	.	.	.	.	.	.	8AA/
8D/	.	8d/	8d/L	.	.	.	.	.	.	.	.	.	.	8D/
8Cn/	.	8cn/	8cn/	.	.	.	.	.	.	.	.	.	.	8Cn/
8D/	.	8d/	8d/	.	.	.	.	.	.	.	.	.	.	8D/
8DD/J	.	8d/J	8d/J	.	.	.	.	.	.	.	.	.	.	8DD/J
=5	=5	=5	=5	=5	=5	=5	=5	=5	=5	=5	=5	=5	=5	=5
2GG/	.	4G/	4G/	2.r	.	2.r	.	2.r	.	2.r	.	2.r	2.r	2GG/
.	.	16r	16r	.	.	.	.	.	.	.	.	.	.	.
.	.	(16d/LL	(16d/LL	.	.	.	.	.	.	.	.	.	.	.
.	.	16e/	16e/	.	.	.	.	.	.	.	.	.	.	.
.	.	16f#/JJ	16f#/JJ	.	.	.	.	.	.	.	.	.	.	.
4r	.	16g/LL	16g/LL	.	.	.	.	.	.	.	.	.	.	4r
.	.	16a/	16a/	.	.	.	.	.	.	.	.	.	.	.
.	.	16b/	16b/	.	.	.	.	.	.	.	.	.	.	.
.	.	16cc#X/JJ)	16cc#X/JJ)	.	.	.	.	.	.	.	.	.	.	.
=6	=6	=6	=6	=6	=6	=6	=6	=6	=6	=6	=6	=6	=6	=6
*	*	*	*	*	*	*	*	*	*	*	*	*2\right	*2\right	*
!LO:TX:b:t=Tutti.	!	!LO:TX:t=P:problem:mixed beam	!	!	!	!	!	!	!	!	!	!	!	!LO:TX:b:i:t=Tutti.
2d\	.	8.dd\L	8.dd\L	4.d\	Glo-	4.d\	Glo-	4.a\	Glo-	4.ff#\	Glo-	2ff#\	2aa\	2d\
.	.	16ee\K	16ee\	.	.	.	.	.	.	.	.	.	.	.
.	.	8.ff#\	8.ff#\	.	.	.	.	.	.	.	.	.	.	.
.	.	.	.	8d\	-ri-	8d\	-ri-	8a\	-ri-	8ff#\	-ri-	.	.	.
.	.	16gg#X\K	16gg#X\Jk	.	.	.	.	.	.	.	.	.	.	.
!	!	!	!LO:TX:t=P:problem:mixed beam	!	!	!	!	!	!	!	!	!	!	!
4c#X\	6	8.aa\	8.aa\L	4c#\	-a	4c#\	-a	4a\	-a	4ee\	-a	4ee\	4aa\	4c#X\
.	.	16a/Jk	16a/Jk	.	.	.	.	.	.	.	.	.	.	.
!LO:LB:g=original	!	!LO:LB:g=original	!LO:LB:g=original	!	!	!	!	!	!	!	!	!	!	!
=7	=7	=7	=7	=7	=7	=7	=7	=7	=7	=7	=7	=7	=7	=7
*	*	*	*	*2\right	*	*2\right	*	*2\right	*	*2\right	*	*	*	*
!	!	!LO:TX:t=P:problem:mixed beam	!LO:TX:t=P:problem:mixed beam	!	!	!	!	!	!	!	!	!	!	!
2B\	.	8.b\L	8.b\L	2B\	Pa-	2B\	Pa-	2f#\	Pa-	2dd\	Pa-	4r	4r	2B\
.	.	16cc#\K	16cc#\K	.	.	.	.	.	.	.	.	.	.	.
.	.	8.dd\	8.dd\	.	.	.	.	.	.	.	.	8.f#/L	8.f#/L	.
.	.	16ee\K	16ee\K	.	.	.	.	.	.	.	.	16f#/Jk	16f#/Jk	.
4A\	6	8.ff#\	8.ff#\	4A\	-tri	4A/	-tri	4f#\	-tri	4cc#\	-tri	4f#/	4f#/	4A\
.	.	16f#/Jk	16f#/Jk	.	.	.	.	.	.	.	.	.	.	.
=8	=8	=8	=8	=8	=8	=8	=8	=8	=8	=8	=8	=8	=8	=8
!	!	!LO:TX:t=P:problem:mixed beam	!LO:TX:t=P:problem:mixed beam	!	!	!	!	!	!	!	!	!	!	!
2G\	.	8.g\L	8.g\L	4.G\	glo-	4.G/	glo-	4.d\	glo-	4.b\	glo-	4r	4r	2G\
.	.	16a\K	16a\K	.	.	.	.	.	.	.	.	.	.	.
.	.	8.b\	8.b\	.	.	.	.	.	.	.	.	8.d/L	8.d/L	.
.	.	.	.	8G\	-ri-	8G/	-ri-	8d\	-ri-	8b\	-ri-	.	.	.
.	.	16cc#\K	16cc#\K	.	.	.	.	.	.	.	.	16d/Jk	16d/Jk	.
4F#\	6	8.dd\	8.dd\	4F#\	-a	4A/	-a	4d\	-a	4a\	-a	4d/	4d/	4F#\
.	.	16d/Jk	16d/Jk	.	.	.	.	.	.	.	.	.	.	.
=9	=9	=9	=9	=9	=9	=9	=9	=9	=9	=9	=9	=9	=9	=9
!LO:TX:t=P:problem:mixed beam	!	!	!	!	!	!	!	!	!	!	!	!	!	!LO:TX:t=P:problem:mixed beam
8G\L	6 5	8g/L	8g/L	4G\	et	4d\	et	4g\	et	(4b\	et	4r	4r	8G\L
8E\	.	8e/	8e/	.	.	.	.	.	.	.	.	.	.	8E\
8A\	.	8a/	8a/	4.A\	Fi-	4.c#\	Fi-	4.e\	Fi-	4.a\)	Fi-	4a/	4ee\	8A\
8G\	.	8g/	8g/	.	.	.	.	.	.	.	.	.	.	8G\
8A\	.	8a/	8a/	.	.	.	.	.	.	.	.	4a/	4ee\	8A\
8AA/J	.	8A/J	8A/J	8AA/	-li-	8c#\	-li-	8e\	-li-	8a\	-li-	.	.	8AA/J
!	!	!	!	!	!	!	!	!	!	!	!	!	!	!LO:LB:g=original
=10	=10	=10	=10	=10	=10	=10	=10	=10	=10	=10	=10	=10	=10	=10
4D\	.	4d/	4d/	2D/	-o	2d\	-o	2f#\	-o	2a\	-o	2a/	2ff#\	4D/
8r	.	16r	16r	.	.	.	.	.	.	.	.	.	.	8r
.	.	16dd\LL	16dd\LL	.	.	.	.	.	.	.	.	.	.	.
8d\L|	.	16cc#\	16cc#\	.	.	.	.	.	.	.	.	.	.	8d\L|
.	.	16dd\JJ	16dd\JJ	.	.	.	.	.	.	.	.	.	.	.
8A\|	.	16a\LL	16a\LL	4r	.	4r	.	4r	.	4r	.	4r	4r	8A\|
.	.	16dd\	16dd\	.	.	.	.	.	.	.	.	.	.	.
8F#\J|	.	16f#\	16f#\	.	.	.	.	.	.	.	.	.	.	8F#\J|
.	.	16a\JJ	16a\JJ	.	.	.	.	.	.	.	.	.	.	.
=11	=11	=11	=11	=11	=11	=11	=11	=11	=11	=11	=11	=11	=11	=11
!	!	!LO:TX:t=P:problem:mixed beam	!LO:TX:t=P:problem:mixed beam	!	!	!	!	!	!	!	!	!LO:TX:a:t=4.	!LO:TX:a:t=4.	!
8D\L	.	8d/L	8d/L	2d\	et	2.d\	et	(2a\	et	2.ff#\	et	0.r	0.r	8D\L
8d\	.	8dd\|	8dd\	.	.	.	.	.	.	.	.	.	.	8d\
8c#\	.	8cc#\|	8cc#\	.	.	.	.	.	.	.	.	.	.	8c#\
8d\	.	8dd\|	8dd\	.	.	.	.	.	.	.	.	.	.	8d\
8B\	6\ 5	8b\|	8b\	(4B\	.	.	.	4g#X\)	.	.	.	.	.	8B\
8G#X\J	.	8g#X\J|	8g#X\J	.	.	.	.	.	.	.	.	.	.	8G#X\J
=12	=12	=12	=12	=12	=12	=12	=12	=12	=12	=12	=12	=12	=12	=12
!	!	!LO:TX:t=P:problem:mixed beam	!LO:TX:t=P:problem:mixed beam	!	!	!	!	!	!	!	!	!	!	!
8C#\L	5\	8c#/L	8c#/L	2c#\)	.	2.c#\	Spi-	2g#X\	Spi-	2.ee\	Spi-	.	.	8C#\L
8c#\	.	8cc#\	8cc#\	.	.	.	.	.	.	.	.	.	.	8c#\
8B\	.	8b\	8b\	.	.	.	.	.	.	.	.	.	.	8B\
8c#\	.	8cc#\	8cc#\	.	.	.	.	.	.	.	.	.	.	8c#\
8A\	6 5	8a\	8a\	4A\	Spi-	.	.	4f#\	.	.	.	.	.	8A\
8F#\J	.	8f#\J	8f#\J	.	.	.	.	.	.	.	.	.	.	8F#\J
!LO:LB:g=original	!	!LO:LB:g=original	!	!	!	!	!	!LO:LB:g=original	!	!	!	!	!	!
=13	=13	=13	=13	=13	=13	=13	=13	=13	=13	=13	=13	=13	=13	=13
!LO:TX:t=P:problem:mixed beam	!	!LO:TX:t=P:problem:mixed beam	!	!	!	!	!	!	!	!	!	!	!	!LO:TX:t=P:problem:mixed beam
8BB/L	.	8B/L	8B/L	4.B\	-ri-	4.B\	-ri-	4.f#\	-ri-	4.dd\	-ri-	.	.	8BB/L
8B\	.	8b\	8b/	.	.	.	.	.	.	.	.	.	.	8B\
8A\	.	8a\	8a/	.	.	.	.	.	.	.	.	.	.	8A\
8B\	.	8b\J	8b/	8B\	-tu-	8B\	-tu-	8f#\	-tu-	8dd\	-tu-	.	.	8B\
8G#X\	6 5	8g#X/L	8g#X/	4G#X\	-i	4B\	-i	4e\	-i	4dd\	-i	.	.	8G#X\
8E\J	.	8e/J	8e/J	.	.	.	.	.	.	.	.	.	.	8E\J
!	!	!	!LO:LB:g=original	!LO:LB:g=original	!	!LO:LB:g=original	!	!	!	!	!	!	!	!
=14	=14	=14	=14	=14	=14	=14	=14	=14	=14	=14	=14	=14	=14	=14
!LO:TX:t=P:problem:mixed beam	!	!	!	!LO:TX:t=P:problem:mixed beam	!	!	!	!	!	!	!	!	!	!LO:TX:t=P:problem:mixed beam
8A\L	.	8a/L	8a/L	8A\L	San-	(>2A/	San-	(4e\	San-	4cc#\	San-	.	.	8A\L
8C#\	.	8c#/	8c#/	8C#/J	.	.	.	.	.	.	.	.	.	8C#\
8D\	6 5	8d/	8d/	4D/	.	.	.	4f#\)	.	2bT\	.	.	.	8D\
8BB\	.	8B/J	8B/	.	.	.	.	.	.	.	.	.	.	8BB\
8E\	#	8e/L	8e/	4E\	.	4G#X/)	.	4e\	.	.	.	.	.	8E\
8EE/J	.	8e/J	8e/J	.	.	.	.	.	.	.	.	.	.	8EE/J
!	!	!	!	!	!	!	!	!	!	!LO:LB:g=original	!	!	!	!
=15	=15	=15	=15	=15	=15	=15	=15	=15	=15	=15	=15	=15	=15	=15
8.A\L	.	2A/	2A/	2AA/	-cto	2A/	-cto	2e\	-cto	2a\	-cto.	4r	4r	8.A\L
16B\K	.	.	.	.	.	.	.	.	.	.	.	.	.	16B\K
8.c#\	6	.	.	.	.	.	.	.	.	.	.	4ee\	4aa\	8.c#\
16d\Jk	.	.	.	.	.	.	.	.	.	.	.	.	.	16d\Jk
8e\L	#3	4r	4r	4r	.	4r	.	4r	.	4r	.	4ee\	4gg#X\	8e\L
8E\J	.	.	.	.	.	.	.	.	.	.	.	.	.	8E\J
=16	=16	=16	=16	=16	=16	=16	=16	=16	=16	=16	=16	=16	=16	=16
!	!	!LO:TX:t=P:problem:mixed beam	!LO:TX:t=P:problem:mixed beam	!	!	!	!	!	!	!	!	!	!	!
2A\	.	8.a\L	8.a\L	2A\	Si-	2c#\	Si-	2e\	si-	2cc#\	si-	2ee\	2aa\	2A\
.	.	16b\K	16b\K	.	.	.	.	.	.	.	.	.	.	.
.	.	8.cc#\	8.cc#\	.	.	.	.	.	.	.	.	.	.	.
.	.	16dd#X\K	16dd#X\K	.	.	.	.	.	.	.	.	.	.	.
4G#X\	6	8.ee\	8.ee\	4G#X\	-cut	4B\	-cut	4e\	-cut	4dd\	-cut	4r	4r	4G#X\
.	.	16e/Jk	16e/Jk	.	.	.	.	.	.	.	.	.	.	.
!	!	!	!	!	!	!	!	!	!	!	!	!	!	!LO:LB:g=original
=17	=17	=17	=17	=17	=17	=17	=17	=17	=17	=17	=17	=17	=17	=17
*	*	*	*	*	*	*	*ij	*	*	*	*ij	*	*	*
!	!	!	!	!	!	!	!	!	!	!	!	!LO:TX:a:t=2.	!LO:TX:a:t=2.	!
2F#\	.	8.f#/L	8.f#/L	2F#\	e-	2A/	Si-	2c#/	e-	2a\	si-	1.r	1.r	2F#\
.	.	16g#X/K	16g#X/K	.	.	.	.	.	.	.	.	.	.	.
.	.	8.a/	8.a/	.	.	.	.	.	.	.	.	.	.	.
.	.	16b/Jk	16b/K	.	.	.	.	.	.	.	.	.	.	.
!	!	!LO:TX:t=P:problem:mixed beam	!	!	!	!	!	!	!	!	!	!	!	!
4E\	6 #	8.cc#\L	8.cc#/	4E\	-rat	4G#X/	-cut	4c#/	-rat	4cc#\	-cut	.	.	4E\
*	*	*	*	*	*	*	*Xij	*	*	*	*Xij	*	*	*
.	.	16c#/Jk	16c#/Jk	.	.	.	.	.	.	.	.	.	.	.
=18	=18	=18	=18	=18	=18	=18	=18	=18	=18	=18	=18	=18	=18	=18
*	*	*	*	*	*ij	*	*	*	*ij	*	*	*	*	*
2D/	.	8.d/L	8.d/L	4.D/	e-	4.F#/	e-	4.A/	e-	4.f#/	e-	.	.	2D/
.	.	16e/K	16e/K	.	.	.	.	.	.	.	.	.	.	.
.	.	8.f#/	8.f#/	.	.	.	.	.	.	.	.	.	.	.
.	.	.	.	8D/	-rat	8F#/	-rat	8A/	-rat	8f#/	-rat	.	.	.
*	*	*	*	*	*Xij	*	*	*	*Xij	*	*	*	*	*
.	.	16g#X/K	16g#X/K	.	.	.	.	.	.	.	.	.	.	.
4C#/	6	8.a/	8.a/	4C#/	in	4E/	in	4A/	in	4a\	in	.	.	4C#/
.	.	16A/Jk	16A/Jk	.	.	.	.	.	.	.	.	.	.	.
!LO:LB:g=original	!	!LO:LB:g=original	!	!	!	!	!	!	!	!	!	!	!	!
=19	=19	=19	=19	=19	=19	=19	=19	=19	=19	=19	=19	=19	=19	=19
!LO:TX:t=P:problem:mixed beam	!	!	!	!	!	!	!	!	!	!	!	!	!	!
8D\L	6 5	8d/L	8d/L	4D/	prin-	4d\	prin-	4f#\	prin-	4a\	prin-	4dd\	4ff#\	8D/L
8BB\	.	8B/	8B/	.	.	.	.	.	.	.	.	.	.	8BB/
8E\	#	8e/	8e/	4.E\	-ci-	4.B\	-ci-	4.e\	-ci-	4.g#X/	-ci-	2ee\	2gg#X\	8E/
8D\	.	8d/	8d/	.	.	.	.	.	.	.	.	.	.	8D/
8E\	.	8e/	8e/	.	.	.	.	.	.	.	.	.	.	8E/
8EE/J	.	8e/J	8e/J	8E\	-pi-	8B\	-pi-	8e\	-pi-	8g#/	-pi-	.	.	8EE/J
=20	=20	=20	=20	=20	=20	=20	=20	=20	=20	=20	=20	=20	=20	=20
!LO:TX:t=P:problem:mixed beam	!	!	!	!	!	!	!	!	!	!	!	!	!	!LO:TX:t=P:problem:mixed beam
8AA/L	.	4A/	4A/	4AA/	-o	2c#\	-o	4e\	-o	4a\	-o	4a/	4aa\	8AA/L
8E\	.	.	.	.	.	.	.	.	.	.	.	.	.	8E\
8A\|	.	16r	16r	4r	.	.	.	4r	.	4r	.	4r	4r	8A\|
.	.	(16d/LL	(16d/LL	.	.	.	.	.	.	.	.	.	.	.
8G\|	.	16e/	16e/	.	.	.	.	.	.	.	.	.	.	8G\|
.	.	16f#/JJ	16f#/JJ	.	.	.	.	.	.	.	.	.	.	.
8F#\|	.	16gn/LL	16gn/LL	4r	.	4r	.	4r	.	4r	.	4r	4r	8F#\|
.	.	16a/	16a/	.	.	.	.	.	.	.	.	.	.	.
8E\J|	.	16b/	16b/	.	.	.	.	.	.	.	.	.	.	8E\J|
.	.	16cc#/JJ)	16cc#/JJ)	.	.	.	.	.	.	.	.	.	.	.
!	!	!	!LO:LB:g=original	!	!	!	!	!LO:LB:g=original	!	!	!	!LO:LB:g=original	!LO:LB:g=original	!
=21	=21	=21	=21	=21	=21	=21	=21	=21	=21	=21	=21	=21	=21	=21
!	!	!LO:TX:t=P:problem:mixed beam	!	!	!	!	!	!	!	!	!	!	!	!
2D/	.	8.dd\L	8.dd\L	4d\	et	4d\	et	4a\	et	4ff#\	et	4r	8.dd\L	2D/
.	.	16ee\K	16ee\Jk	.	.	.	.	.	.	.	.	.	16ee\Jk	.
.	.	8.ff#\	8.ff#\L	4d\	nunc	4d\	nunc	4a\	nunc	4ff#\	nunc	4dd\	8.ff#\L	.
.	.	16gg#X\K	16gg#X\Jk	.	.	.	.	.	.	.	.	.	16gg#X\Jk	.
!	!	!	!LO:TX:t=P:problem:mixed beam	!	!	!	!	!	!	!	!	!	!	!
4C#/	6	8.aa\	8.aa\L	4c#\	et	4c#\	et	4a\	et	4ee\	et	4a/	4aa\	4C#/
.	.	16a/Jk	16a/Jk	.	.	.	.	.	.	.	.	.	.	.
!	!	!	!	!LO:LB:g=original	!	!	!	!	!	!	!	!	!	!
=22	=22	=22	=22	=22	=22	=22	=22	=22	=22	=22	=22	=22	=22	=22
!	!	!LO:TX:t=P:problem:mixed beam	!	!	!	!	!	!	!	!	!	!	!	!
2B\	.	8.b\L	8.b\L	2B\	Sem-	2B\	sem-	2f#\	sem-	2dd\	sem-	4f#/	4r	2B\
.	.	16cc#\K	16cc#\Jk	.	.	.	.	.	.	.	.	.	.	.
.	.	8.dd\	8.dd\L	.	.	.	.	.	.	.	.	4f#/	8.dd\L	.
.	.	16ee\K	16ee\Jk	.	.	.	.	.	.	.	.	.	16ee\Jk	.
!	!	!	!LO:TX:t=P:problem:mixed beam	!	!	!	!	!	!	!	!	!	!	!
4A\	6	8.ff#\	8.ff#\L	4A\	-per	4A/	-per	4f#\	-per	4cc#\	-per	4f#/	4ff#\	4A\
.	.	16f#/Jk	16f#/Jk	.	.	.	.	.	.	.	.	.	.	.
!	!	!	!	!	!	!LO:LB:g=original	!	!	!	!	!	!	!	!
=23	=23	=23	=23	=23	=23	=23	=23	=23	=23	=23	=23	=23	=23	=23
!	!	!LO:TX:t=P:problem:mixed beam	!	!	!	!	!	!	!	!	!	!	!	!
2G\	.	8.g\L	8.g/L	2G\	et	2G/	et	2d\	et	2b\	et	4r	4r	2G\
.	.	16a\K	16a/K	.	.	.	.	.	.	.	.	.	.	.
.	.	8.b\	8.b/	.	.	.	.	.	.	.	.	4d/	4d/	.
.	.	16cc#\K	16cc#/Jk	.	.	.	.	.	.	.	.	.	.	.
!	!	!	!LO:TX:t=P:problem:mixed beam	!	!	!	!	!	!	!	!	!	!	!
4F#\	6	8.dd\	8.dd\L	4F#\	in	4F#/	in	4d\	in	4a\	in	4d/	4d/	4F#\
.	.	16d/Jk	16d/Jk	.	.	.	.	.	.	.	.	.	.	.
!	!	!LO:LB:g=original	!	!	!	!	!	!	!	!LO:LB:g=original	!	!	!	!
=24	=24	=24	=24	=24	=24	=24	=24	=24	=24	=24	=24	=24	=24	=24
!	!	!LO:TX:t=P:problem:mixed beam	!LO:TX:t=P:problem:mixed beam	!	!	!	!	!	!	!	!	!	!	!
8r	.	8g/L	8g/L	4.G\	sae-	4.d\	sae-	4.g\	sae-	4.b\	sae-	2.gg\	2.bb\	8r
8G\L	.	8gg\|	8gg\	.	.	.	.	.	.	.	.	.	.	8G\L
8F#\	.	8ff#\|	8ff#\	.	.	.	.	.	.	.	.	.	.	8F#\
8G\	.	8gg\|	8gg\	8G\	-cu-	8d\	-cu-	8g\	-cu-	8b\	-cu-	.	.	8G\
8E\	6 5	8ee\	8ee\	4E\	-la	4c#\	-la	4g\	-la	4b\	-la	.	.	8E\
8C#\J	.	8cc#\J	8cc#\J	.	.	.	.	.	.	.	.	.	.	8C#\J
!LO:LB:g=original	!	!	!	!	!	!	!	!	!	!	!	!	!	!LO:LB:g=original
=25	=25	=25	=25	=25	=25	=25	=25	=25	=25	=25	=25	=25	=25	=25
!	!	!LO:TX:t=P:problem:mixed beam	!LO:TX:t=P:problem:mixed beam	!	!	!	!	!	!	!	!	!	!	!
8r	.	8f#/L	8f#/L	2F#\	sae-	2c#\	sae-	2f#\	sae-	2a\	sae-	2.ff#\	2.aa\	8r
8F#\L	.	8ff#\	8ff#\	.	.	.	.	.	.	.	.	.	.	8F#\L
8E\	.	8ee\	8ee\	.	.	.	.	.	.	.	.	.	.	8E\
8F#\	.	8ff#\	8ff#\	.	.	.	.	.	.	.	.	.	.	8F#\
8D\	6 5	8dd\	8dd\	4D/	-cu-	4B\	-cu-	4f#\	-cu-	4a\	-cu-	.	.	8D\
8BB\J	.	8b\J	8b\J	.	.	.	.	.	.	.	.	.	.	8BB\J
=26	=26	=26	=26	=26	=26	=26	=26	=26	=26	=26	=26	=26	=26	=26
!	!	!LO:TX:t=P:problem:mixed beam	!LO:TX:t=P:problem:mixed beam	!	!	!	!	!	!	!	!	!	!	!
8r	.	8e/L	8e/L	2E\	-lo-	2B\	-lo-	2e\	-lo-	2g/	-lo-	2.ee\	2.gg\	8r
8E\L	.	8ee\	8ee\	.	.	.	.	.	.	.	.	.	.	8E\L
8D\	.	8dd\	8dd\	.	.	.	.	.	.	.	.	.	.	8D\
8E\	.	8ee\	8ee\	.	.	.	.	.	.	.	.	.	.	8E\
8C#\	6 5	8cc#\	8cc#\	4C#/	-rum	4A/	-rum	4e\	-rum	4g/	-rum	.	.	8C#\
8AA\J	.	8a\J	8a\J	.	.	.	.	.	.	.	.	.	.	8AA\J
=27	=27	=27	=27	=27	=27	=27	=27	=27	=27	=27	=27	=27	=27	=27
!LO:TX:t=P:problem:mixed beam	!	!LO:TX:t=P:problem:mixed beam	!LO:TX:t=P:problem:mixed beam	!	!	!	!	!	!	!	!	!	!	!LO:TX:t=P:problem:mixed beam
8D\L	.	8dd\L	8dd\L	8D\L	a-	4A/	a-	2d\	a-	2f#/	a-	4dd\	4ff#\	8D\L
8F#\	.	8f#/|	8f#/	8F#\J	.	.	.	.	.	.	.	.	.	8F#\
8G\	6 5	8g/|	8g/	4G\	.	4B\	.	.	.	.	.	4r	4r	8G\
8E\	.	8e/|	8e/	.	.	.	.	.	.	.	.	.	.	8E\
8A\	.	8a/	8a/	4A\	.	4A/	.	4c#/	.	4e/	.	8a/L	8ee\L	8A\
8AA/J	.	8A/J	8A/J	.	.	.	.	.	.	.	.	8a/J	8ee\J	8AA/J
=28	=28	=28	=28	=28	=28	=28	=28	=28	=28	=28	=28	=28	=28	=28
*M2/2	*	*M2/2	*M2/2	*M2/2	*	*M2/2	*	*M2/2	*	*M2/2	*	*M2/2	*M2/2	*M2/2
*met(c|)	*	*met(c|)	*met(c|)	*met(c|)	*	*met(c|)	*	*met(c|)	*	*met(c|)	*	*met(c|)	*met(c|)	*met(c|)
!LO:TX:b:Bi:t=Allo.	!	!LO:TX:b:Bi:t=Allo.	!LO:TX:b:Bi:t=allo.	!LO:TX:a:Bi:t=Allo.	!	!LO:TX:b:Bi:t=Allo.	!	!LO:TX:b:Bi:t=Allo.	!	!LO:TX:a:Bi:t=allo.	!	!LO:TX:b:Bi:t=Allo&colon;	!LO:TX:b:Bi:t=Allo.	!LO:TX:a:Bi:t=Allo.
2D\	.	4d/	2d/	2D/	-men.	2A/	-men	2d\	-men	4d/	-men	2f#/	2dd\	2D\
.	.	4dd\|	.	.	.	.	.	.	.	4dd\	a-	.	.	.
2r	.	4cc#\|	2r	2r	.	2r	.	2r	.	4cc#\	.	2r	2r	2r
.	.	4b\|	.	.	.	.	.	.	.	4b\	.	.	.	.
*clefC4	*	*	*	*	*	*	*	*	*	*	*	*	*	*clefC4
!	!	!	!LO:LB:g=original	!	!	!	!	!LO:LB:g=original	!	!	!	!	!	!
=29	=29	=29	=29	=29	=29	=29	=29	=29	=29	=29	=29	=29	=29	=29
!	!	!	!LO:TX:a:t=6.	!LO:TX:a:t=20.	!	!	!	!	!	!	!	!LO:TX:a:t=13.	!LO:TX:a:t=13.	!
4r	.	[1a	00r	00r	.	4r	.	4r	.	[1a	.	00r	00r	4r
4d\	5	.	.	.	.	4d\	a-	4f#\	a-	.	.	.	.	4d\
4c#\	6	.	.	.	.	4c#\	.	(4e\	.	.	.	.	.	4c#\
4B\	7	.	.	.	.	4B\	.	4d\)	.	.	.	.	.	4B\
=30	=30	=30	=30	=30	=30	=30	=30	=30	=30	=30	=30	=30	=30	=30
2A\	8	4a/]	.	.	.	2A/	-men	2c#/	-men	4a\]	.	.	.	2A\
.	.	4b/	.	.	.	.	.	.	.	4b\	.	.	.	.
2r	.	4a/	.	.	.	2r	.	2r	.	4a\	.	.	.	2r
.	.	4g/	.	.	.	.	.	.	.	4g/	.	.	.	.
!	!	!LO:LB:g=original	!	!	!	!LO:LB:g=original	!	!	!	!	!	!	!	!
=31	=31	=31	=31	=31	=31	=31	=31	=31	=31	=31	=31	=31	=31	=31
4r	.	[1f#	.	.	.	4r	.	4r	.	[1f#	.	.	.	4r
4B\	5	.	.	.	.	4B\	a-	4d\	a-	.	.	.	.	4B\
4A\	6	.	.	.	.	4A/	.	(>4c#/	.	.	.	.	.	4A\
4G/	7	.	.	.	.	4G/	.	4B/)	.	.	.	.	.	4G\
!LO:LB:g=original	!	!	!	!	!	!	!	!	!	!	!	!	!	!LO:LB:g=original
=32	=32	=32	=32	=32	=32	=32	=32	=32	=32	=32	=32	=32	=32	=32
2F#/	8	4f#/]	.	.	.	2F#/	-men	2A/	-men	4f#/]	.	.	.	2F#/
.	.	4g/	.	.	.	.	.	.	.	4g/	.	.	.	.
2r	.	4f#/	.	.	.	2r	.	2r	.	4f#/	.	.	.	2r
.	.	4e/	.	.	.	.	.	.	.	4e/	.	.	.	.
!	!	!	!	!	!	!	!	!	!	!LO:LB:g=original	!	!	!	!
=33	=33	=33	=33	=33	=33	=33	=33	=33	=33	=33	=33	=33	=33	=33
4r	.	2.d/	0r	00r	.	4r	.	4r	.	2.d/	-men	00r	00r	4r
4G/	5	.	.	.	.	4G/	a-	4B/	a-	.	.	.	.	4G/
4F#/	6	.	.	.	.	4F#/	.	4A/	.	.	.	.	.	4F#/
4E/	7	4e/	.	.	.	4E/	.	4g\	.	4e/	a-	.	.	4E/
=34	=34	=34	=34	=34	=34	=34	=34	=34	=34	=34	=34	=34	=34	=34
2D/	8	4f#/	.	.	.	2D/	-men	2f#\	-men	4f#/	.	.	.	2D/
.	.	4d/	.	.	.	.	.	.	.	4d/	.	.	.	.
*	*	*	*	*	*	*	*ij	*	*	*	*	*	*	*
2B\	5	4f#/	.	.	.	2B\	a-	2d\	a-	4f#/	.	.	.	2B\
.	6\	4g#X/	.	.	.	.	.	.	.	4g#X/	.	.	.	.
=35	=35	=35	=35	=35	=35	=35	=35	=35	=35	=35	=35	=35	=35	=35
2A/	.	2a/	4r	.	.	2A/	-men	4c#/	-men	2a\	-men	.	.	2A/
*	*	*	*	*	*	*	*Xij	*	*	*	*	*	*	*
.	.	.	4aa\	.	.	.	.	(4a\	a-	.	.	.	.	.
2r	.	2r	4gg#X\	.	.	2r	.	4g#X\)	.	2r	.	.	.	2r
.	.	.	4ff#\	.	.	.	.	4f#\	.	.	.	.	.	.
!	!	!	!	!	!	!	!	!LO:LB:g=original	!	!	!	!	!	!
=36	=36	=36	=36	=36	=36	=36	=36	=36	=36	=36	=36	=36	=36	=36
4r	.	4r	[1ee	.	.	4r	.	[1e	.	4r	.	.	.	4r
4A/	5	4cc#\	.	.	.	4A/	a-	.	.	4cc#\	a-	.	.	4A/
4G#X/	6	4b/	.	.	.	4G#X/	.	.	.	4b\	.	.	.	4G#X/
4F#/	7	4a/	.	.	.	4F#/	.	.	.	4a\	.	.	.	4F#/
=37	=37	=37	=37	=37	=37	=37	=37	=37	=37	=37	=37	=37	=37	=37
4E/	8 #	4g#X/	4ee\]	00r	.	4E/	-men	4e\]	.	4g#X/	-men	00r	00r	4E/
4r	.	4r	4ff#\	.	.	4r	.	4f#\	.	4r	.	.	.	4r
2r	.	2r	4ee\	.	.	2r	.	4e\	.	2r	.	.	.	2r
.	.	.	4dd\	.	.	.	.	4d\	.	.	.	.	.	.
=38	=38	=38	=38	=38	=38	=38	=38	=38	=38	=38	=38	=38	=38	=38
4r	.	4r	[1cc#	.	.	4r	.	[<1c#	.	4r	.	.	.	4r
4F#/	5	4a/	.	.	.	4F#/	a-	.	.	4a\	a-	.	.	4F#/
4E/	6 #	4g#X/	.	.	.	4E/	.	.	.	4g#X/	.	.	.	4E/
4D/	7	4f#/	.	.	.	4D/	.	.	.	4f#/	.	.	.	4D/
!	!	!	!	!	!	!LO:PB:g=original	!	!	!	!	!	!	!	!
=39	=39	=39	=39	=39	=39	=39	=39	=39	=39	=39	=39	=39	=39	=39
4C#/	8 5\	4e/	4cc#\]	.	.	4C#/	-men	4c#/]	.	4e/	-men	.	.	4C#/
4r	.	4r	4dd\	.	.	4r	.	4d\	.	4r	.	.	.	4r
2r	.	2r	4cc#\	.	.	2r	.	4c#/	.	2r	.	.	.	2r
.	.	.	4b/	.	.	.	.	4B/	.	.	.	.	.	.
!	!	!	!	!	!	!	!	!	!	!	!	!	!	!LO:LB:g=original
=40	=40	=40	=40	=40	=40	=40	=40	=40	=40	=40	=40	=40	=40	=40
4r	.	4r	2.a/	.	.	4r	.	2.A/	-men	4r	.	.	.	4r
4D/	3	4ff#\	.	.	.	4D/	a-	.	.	4ff#\	a-	.	.	4D/
4C#/	6	4ee\	.	.	.	4C#/	.	.	.	4ee\	.	.	.	4C#/
4BB/	7	4dd\	4b/	.	.	4BB/	.	4B/	a-	4dd\	.	.	.	4BB/
!	!	!LO:LB:g=original	!	!	!	!	!	!	!	!LO:LB:g=original	!	!	!	!
=41	=41	=41	=41	=41	=41	=41	=41	=41	=41	=41	=41	=41	=41	=41
2AA/	8	4ee\	4cc#\	00r	.	2AA/	-men	4c#/	.	4ee\	.	1r	1r	2AA/
.	.	4cc#\	4a/	.	.	.	.	4A/	.	4cc#\	.	.	.	.
2G/	5 3	4dd\	4b/	.	.	2G/	a-	4B/	.	4dd\	.	.	.	2G/
.	6 4	4ee\	4cc#\	.	.	.	.	4c#/	.	4ee\	.	.	.	.
!LO:LB:g=original	!	!	!	!	!	!	!	!	!	!	!	!	!	!
=42	=42	=42	=42	=42	=42	=42	=42	=42	=42	=42	=42	=42	=42	=42
4F#/	6	4a/	4dd\	.	.	4F#/	-men	2d\	-men	2a\	-men	4r	4r	4F#/
4d\	5	4ff#\	8aa\L	.	.	4d\	a-	.	.	.	.	4ff#\	4aa\	4d\
.	.	.	8aa\J	.	.	.	.	.	.	.	.	.	.	.
4c#\	6	4ee\	8aa\L	.	.	4c#\	.	2r	.	2r	.	4ee\	4aa\	4c#\
.	.	.	8aa\	.	.	.	.	.	.	.	.	.	.	.
4B\	7	4dd\	8aa\	.	.	4B\	.	.	.	.	.	4dd\	4aa\	4B\
.	.	.	8aa\J	.	.	.	.	.	.	.	.	.	.	.
=43	=43	=43	=43	=43	=43	=43	=43	=43	=43	=43	=43	=43	=43	=43
[1A	8	4cc#\	4aa\	.	.	[1A	.	4r	.	4r	.	2a/	2aa\	[1A
.	6 4	4r	4r	.	.	.	.	4dd\	a-	4ff#\	a-	.	.	.
.	5\ 3	2r	2r	.	.	.	.	4cc#\	.	4ee\	.	2r	2r	.
.	4 2	.	.	.	.	.	.	4b\	.	4dd\	.	.	.	.
!	!	!	!	!	!	!	!	!LO:LB:g=original	!	!	!	!	!	!
=44	=44	=44	=44	=44	=44	=44	=44	=44	=44	=44	=44	=44	=44	=44
4A\]	3 1	4r	4r	.	.	4A\]	.	4a\	-men	4cc#\	-men	4r	4r	4A\]
4B\	5	4dd\	8ff#\L	.	.	4B\	.	4r	.	4r	.	4f#/	4f#/	4B\
.	.	.	8ff#\J	.	.	.	.	.	.	.	.	.	.	.
4A\	6	4cc#\	8ff#\L	.	.	4A\	.	2r	.	2r	.	4f#/	4f#/	4A\
.	.	.	8ff#\	.	.	.	.	.	.	.	.	.	.	.
4G/	7	4b/	8ff#\	.	.	4G/	.	.	.	.	.	4f#/	4f#/	4G/
.	.	.	8ff#\J	.	.	.	.	.	.	.	.	.	.	.
!	!	!	!LO:LB:g=original	!	!	!	!	!	!	!	!	!LO:LB:g=original	!LO:LB:g=original	!
=45	=45	=45	=45	=45	=45	=45	=45	=45	=45	=45	=45	=45	=45	=45
[1F#	8	4a/	4ff#\	00r	.	[1F#	.	4r	.	4r	.	2f#/	2f#/	[1F#
.	6 4	4r	4r	.	.	.	.	4b\	a-	4dd\	a-	.	.	.
.	5 3	2r	2r	.	.	.	.	4a\	.	4cc#\	.	2r	2r	.
.	4 2	.	.	.	.	.	.	4g\	.	4b\	.	.	.	.
=46	=46	=46	=46	=46	=46	=46	=46	=46	=46	=46	=46	=46	=46	=46
4F#/]	3 1	4r	4r	.	.	4F#/]	.	4f#\	-men	4a\	-men	4r	4r	4F#/]
4G/	5	4b/	8dd\L	.	.	4G/	.	4r	.	4r	.	4d/	4d/	4G/
.	.	.	8dd\J	.	.	.	.	.	.	.	.	.	.	.
4F#/	6	4a/	8dd\L	.	.	4F#/	.	2r	.	2r	.	4d/	4d/	4F#/
.	.	.	8dd\	.	.	.	.	.	.	.	.	.	.	.
4E/	7	4g/	8dd\	.	.	4E/	.	.	.	.	.	4d/	4d/	4E/
.	.	.	8dd\J	.	.	.	.	.	.	.	.	.	.	.
!	!	!	!	!	!	!LO:LB:g=original	!	!	!	!	!	!	!	!
=47	=47	=47	=47	=47	=47	=47	=47	=47	=47	=47	=47	=47	=47	=47
*	*	*	*2\right	*	*	*	*	*	*	*	*	*	*	*
2.D/	8	4f#/	2.dd\	.	.	2.D/	-men	4r	.	4r	.	2d/	2d/	2.D/
.	6 4	4r	.	.	.	.	.	4g\	a-	4b\	a-	.	.	.
.	5 3	4r	.	.	.	.	.	4f#\	.	4a\	.	2r	2r	.
4E/	6	4g/	4cc#\	.	.	4E/	a-	4e\	.	4g/	.	.	.	4E/
=48	=48	=48	=48	=48	=48	=48	=48	=48	=48	=48	=48	=48	=48	=48
4F#/	6	4a/	2dd\	.	.	4F#/	.	4d\	-men	4f#/	.	2.dd\	2.ff#\	4F#/
4D/	.	4f#/	.	.	.	4D/	.	4f#\	a-	4a\	.	.	.	4D/
!	!	!	!	!	!	!	!	!	!	!LO:LB:g=original	!	!	!	!LO:LB:g=original
4F#/	.	4a/	2dd\	.	.	4F#/	.	4a\	.	2dd\	.	.	.	4F#/
4G#X/	.	4b/	.	.	.	4G#X/	.	4b\	.	.	.	4dd\	4ff#\	4G#X/
!	!	!	!	!LO:LB:g=original	!	!	!	!	!	!	!	!	!	!
=49	=49	=49	=49	=49	=49	=49	=49	=49	=49	=49	=49	=49	=49	=49
4A/	.	4e/	4cc#\	4r	.	2A/	-men	2e\	-men	2cc#\	-men	4a/	4ee\	4A/
*clefF4	*	*	*	*	*	*	*	*	*	*	*	*	*	*clefF4
4A\	5	8ee\L	4ccc#\	4A\	a-	.	.	.	.	.	.	4ee\	4ee\	4A\
.	.	8ee\J	.	.	.	.	.	.	.	.	.	.	.	.
4G#X\	6	8ee\L	4bb\	4G#X\	.	2r	.	2r	.	2r	.	4ee\	4ee\	4G#X\
.	.	8ee\	.	.	.	.	.	.	.	.	.	.	.	.
4F#\	7	8ee\	4aa\	4F#\	.	.	.	.	.	.	.	4ee\	4ee\	4F#\
.	.	8ee\J	.	.	.	.	.	.	.	.	.	.	.	.
!	!	!LO:LB:g=original	!	!	!	!	!	!	!	!	!	!	!	!
=50	=50	=50	=50	=50	=50	=50	=50	=50	=50	=50	=50	=50	=50	=50
!	!	!	!	!	!	!	!	!	!	!LO:TX:a:t=6.	!	!	!	!
[1E	#3	4ee\	4gg#X\	[1E	.	4r	.	4r	.	00r	.	2ee\	2ee\	[1E
.	6 4	4r	4r	.	.	4a\	a-	4cc#\	a-	.	.	.	.	.
.	5 #3r	2r	2r	.	.	4g#X\	.	4b\	.	.	.	2r	2r	.
.	4 2	.	.	.	.	4f#\	.	4a\	.	.	.	.	.	.
!LO:LB:g=original	!	!	!	!	!	!	!	!LO:LB:g=original	!	!	!	!	!	!
=51	=51	=51	=51	=51	=51	=51	=51	=51	=51	=51	=51	=51	=51	=51
4E\]	#	4r	4r	4E\]	.	4e\	-men	4g#X\	-men	.	.	4r	4r	4E\]
4F#\	5	8cc#\L	4aa\	4F#\	.	4r	.	4r	.	.	.	4aa\	4aa\	4F#\
.	.	8cc#\J	.	.	.	.	.	.	.	.	.	.	.	.
4E\	6 #	8cc#\L	4gg#X\	4E\	.	2r	.	2r	.	.	.	4gg#X\	4gg#X\	4E\
.	.	8cc#\	.	.	.	.	.	.	.	.	.	.	.	.
4D\	7	8cc#\	4ff#\	4D/	.	.	.	.	.	.	.	4ff#\	4ff#\	4D\
.	.	8cc#\J	.	.	.	.	.	.	.	.	.	.	.	.
=52	=52	=52	=52	=52	=52	=52	=52	=52	=52	=52	=52	=52	=52	=52
[1C#	8	4cc#\	4ee\	[1C#	.	4r	.	4r	.	.	.	4ee\	4ee\	[1C#
.	6 4	4r	4r	.	.	4f#\	a-	4a\	a-	.	.	4r	4r	.
.	5\ 3	2r	2r	.	.	4e\	.	4g#X\	.	.	.	2r	2r	.
.	4 2	.	.	.	.	4d\	.	4f#\	.	.	.	.	.	.
=53	=53	=53	=53	=53	=53	=53	=53	=53	=53	=53	=53	=53	=53	=53
4C#/]	3 1	4r	4r	4C#/]	.	4c#\	-men	4e\	-men	.	.	4r	4r	4C#/]
4D/	5	8a/L	4ff#\	4D/	.	4r	.	4r	.	.	.	4a/	4a/	4D/
.	.	8a/J	.	.	.	.	.	.	.	.	.	.	.	.
4C#/	6	8a/L	4ee\	4C#/	.	2r	.	2r	.	.	.	4a/	4a/	4C#/
.	.	8a/	.	.	.	.	.	.	.	.	.	.	.	.
4BB/	7	8a/	4dd\	4BB/	.	.	.	.	.	.	.	4a/	4a/	4BB/
.	.	8a/J	.	.	.	.	.	.	.	.	.	.	.	.
=54	=54	=54	=54	=54	=54	=54	=54	=54	=54	=54	=54	=54	=54	=54
2.AA/	8	2.a/	4cc#\	2.AA/	-men	4r	.	4r	.	0r	.	2a/	2a/	2.AA/
.	6 4	.	4r	.	.	4d\	a-	4f#\	a-	.	.	.	.	.
.	5 3	.	4r	.	.	4c#\	.	4e\	.	.	.	2r	2r	.
4BB/	6\	4g#X/	4dd\	4BB/	a-	4B\	.	4d\	.	.	.	.	.	4BB/
!	!	!	!LO:LB:g=original	!	!	!LO:LB:g=original	!	!	!	!	!	!	!	!
=55	=55	=55	=55	=55	=55	=55	=55	=55	=55	=55	=55	=55	=55	=55
4C#/	6	4e/	4ee\	4C#/	.	4A/	-men	4c#/	-men	.	.	2a/	2a/	4C#/
*	*	*	*	*	*	*	*	*	*ij	*	*	*	*	*
4AA/	.	4a/	4cc#\	4AA/	.	4c#\	a-	4e\	a-	.	.	.	.	4AA/
4BB/	n6	2gn/	4dd\	4BB/	.	4d\	.	2gn\	.	.	.	2r	2r	4BB/
4C#/	5	.	4ee\	4C#/	.	4e\	.	.	.	.	.	.	.	4C#/
!	!	!	!	!	!	!	!	!	!	!	!	!LO:LB:g=original	!	!LO:LB:g=original
=56	=56	=56	=56	=56	=56	=56	=56	=56	=56	=56	=56	=56	=56	=56
4D/	.	4f#/	4a/	4D/	-men	2A/	men	4f#\	-men	4r	.	4f#/	4a/	4D/
*	*	*	*	*	*	*	*	*	*Xij	*	*	*	*	*
4r	.	4b/	4dd\	4r	.	.	.	4b\	a-	4dd\	A-	4r	4r	4r
2r	.	4a/	4ccn\	2r	.	2r	.	4a\	.	4ccn\	.	2r	2r	2r
.	.	4g/	4b\	.	.	.	.	4g\	.	4b\	.	.	.	.
!	!	!	!	!LO:LB:g=original	!	!	!	!LO:LB:g=original	!	!	!	!	!LO:LB:g=original	!
=57	=57	=57	=57	=57	=57	=57	=57	=57	=57	=57	=57	=57	=57	=57
4r	.	2.f#/	2.a/	4r	.	1d	a-	2.f#\	.	2.a\	.	4f#/	4a/	4r
4d\	.	.	.	4d\	a-	.	.	.	.	.	.	4r	4r	4d\
4cn\	2	.	.	4cn\	.	.	.	.	.	.	.	2r	2r	4cn\
4B\	6\	4g#X/	4b/	4B\	.	.	.	4g#X\	.	4b\	.	.	.	4B\
=58	=58	=58	=58	=58	=58	=58	=58	=58	=58	=58	=58	=58	=58	=58
!	!	!	!	!	!	!	!	!	!	!	!	!LO:TX:a:t=12.	!LO:TX:a:t=12.	!
2.A\	n	4a/	4ccn\	2.A\	.	2e\	-men	4a\	-men	4ccn\	-men	00r	00r	2.A\
.	.	4a/	4cc\	.	.	.	.	4a\	a-	4cc\	a-	.	.	.
.	.	4gn/	4b/	.	.	2r	.	4gn\	.	4b\	.	.	.	.
4B\	7	4f#/	4a/	4B\	.	.	.	4f#\	.	4a\	.	.	.	4B\
!	!	!LO:LB:g=original	!	!	!	!	!	!	!	!	!	!	!	!
=59	=59	=59	=59	=59	=59	=59	=59	=59	=59	=59	=59	=59	=59	=59
*	*	*	*	*	*	*	*ij	*	*	*	*	*	*	*
4cn\	5	2.e/	2.g/	4cn\	-men	1cn	a-	2.e\	.	2.g/	.	.	.	4cn\
4c\	.	.	.	4c\	a-	.	.	.	.	.	.	.	.	4c\
4B\	n2r	.	.	4B\	.	.	.	.	.	.	.	.	.	4B\
4A\	6 n	4f#/	4a/	4A\	.	.	.	4f#\	.	4a\	.	.	.	4A\
!LO:LB:g=original	!	!	!	!	!	!	!	!	!	!	!	!	!	!
=60	=60	=60	=60	=60	=60	=60	=60	=60	=60	=60	=60	=60	=60	=60
2.G\	.	4g/	4b/	2.G\	.	2d\	-men	4g\	-men	4b\	-men	.	.	2.G\
*	*	*	*	*	*	*	*Xij	*	*	*	*	*	*	*
.	.	4g/	4b/	.	.	.	.	4g\	a-	4b\	a-	.	.	.
.	.	4f#/	4a/	.	.	2r	.	4f#\	.	4a\	.	.	.	.
4A\	7 n	4e/	4g/	4A\	.	.	.	4e\	.	4g/	.	.	.	4A\
=61	=61	=61	=61	=61	=61	=61	=61	=61	=61	=61	=61	=61	=61	=61
4B\	#	2d#X/	2f#/	4B\	-men	2.B\	a-	2d#X\	.	2f#/	.	.	.	4B\
4A\	.	.	.	4A\	a-	.	.	.	.	.	.	.	.	4A\
4G\	6	[2e/	2g/	4G\	.	.	.	[2e\	.	2g/	.	.	.	4G\
4E\	.	.	.	4E\	.	4B\	-men	.	.	.	.	.	.	4E\
=62	=62	=62	=62	=62	=62	=62	=62	=62	=62	=62	=62	=62	=62	=62
4A\	6 5 n	2e/]	1f#t	4A\	.	2cn\	a-	2e\]	.	1f#t	.	00r	00r	4A\
4F#\	.	.	.	4F#\	.	.	.	.	.	.	.	.	.	4F#\
4B\	#	2d#Xt/	.	4B\	.	2B\	.	2d#X\	.	.	.	.	.	4B\
4BB/	.	.	.	4BB/	.	.	.	.	.	.	.	.	.	4BB/
!	!	!	!	!	!	!	!	!	!	!LO:LB:g=original	!	!	!	!
=63	=63	=63	=63	=63	=63	=63	=63	=63	=63	=63	=63	=63	=63	=63
4E\	n	4e/	4e/	4E\	-men	4B\	-men	4e\	-men	4e/	men	.	.	4E\
4r	.	4cc#X\	4ee\	4r	.	4r	.	4cc#\	a-	4ee\	a-	.	.	4r
2r	.	4b/	4dd\	2r	.	2r	.	4b\	.	4dd\	.	.	.	2r
.	.	4a/	4cc#X\	.	.	.	.	4a\	.	4cc#X\	.	.	.	.
!	!	!	!	!LO:LB:g=original	!	!	!	!LO:LB:g=original	!	!	!	!	!	!LO:LB:g=original
=64	=64	=64	=64	=64	=64	=64	=64	=64	=64	=64	=64	=64	=64	=64
4r	.	2.g#X/	2.b\	4r	.	1e	a-	2.g#X\	.	2.b\	.	.	.	4r
4E\	#	.	.	4E\	a-	.	.	.	.	.	.	.	.	4E\
4D/	+4r 2	.	.	4D/	.	.	.	.	.	.	.	.	.	4D\
4C#X/	6\	4a#X/	4cc#\	4C#X/	.	.	.	4a#X\	.	4cc#\	.	.	.	4C#X/
!	!	!	!	!	!	!LO:LB:g=original	!	!	!	!	!	!	!	!
=65	=65	=65	=65	=65	=65	=65	=65	=65	=65	=65	=65	=65	=65	=65
2.BB/	.	4b/	4dd\	2.BB/	.	2f#\	-men	4b\	-men	4dd\	-men	.	.	2.BB/
.	.	4b/	4dd\	.	.	.	.	4b\	a-	4dd\	a-	.	.	.
!	!	!	!LO:LB:g=original	!	!	!	!	!	!	!	!	!	!	!
.	.	4an/	4cc#\	.	.	2r	.	4an\	.	4cc#\	.	.	.	.
4C#/	7	4g#X/	4b/	4C#/	.	.	.	4g#X\	.	4b\	.	.	.	4C#/
=66	=66	=66	=66	=66	=66	=66	=66	=66	=66	=66	=66	=66	=66	=66
*	*	*	*	*	*	*	*ij	*	*	*	*	*	*	*
4D/	5	2.f#/	2.a/	4D/	-men	1d	a-	2.f#\	.	2.a\	.	00r	00r	4D/
4D/	.	.	.	4d\	a-	.	.	.	.	.	.	.	.	4D/
4C#/	2	.	.	4c#\	.	.	.	.	.	.	.	.	.	4C#/
4BB/	6\	4g#X/	4b/	4B\	.	.	.	4g#X\	.	4b\	.	.	.	4BB/
=67	=67	=67	=67	=67	=67	=67	=67	=67	=67	=67	=67	=67	=67	=67
2.AA/	.	4a/	4cc#\	2.A\	.	2e\	-men	4a\	-men	4cc#\	-men	.	.	2.AA/
*	*	*	*	*	*	*	*Xij	*	*	*	*	*	*	*
.	.	4a/	4cc#\	.	.	.	.	4a\	a-	4cc#\	a-	.	.	.
.	.	4g#X/	4b/	.	.	2r	.	4g#X\	.	4b\	.	.	.	.
4BB/	7	4f#/	4a/	4B\	.	.	.	4f#\	.	4a\	.	.	.	4BB/
=68	=68	=68	=68	=68	=68	=68	=68	=68	=68	=68	=68	=68	=68	=68
4C#/	#	2e#X/	2g#X/	4c#\	-men	2.c#X\	a-	2e#X\	.	2g#X/	.	.	.	4C#/
4B\	.	.	.	4B\	a-	.	.	.	.	.	.	.	.	4B\
4A\	6	[2f#/	2a/	4A\	.	.	.	[2f#\	.	2a\	.	.	.	4A\
4F#\	.	.	.	4F#\	.	4c#\	-men	.	.	.	.	.	.	4F#\
!LO:LB:g=original	!	!	!	!	!	!	!	!	!	!	!	!	!	!
=69	=69	=69	=69	=69	=69	=69	=69	=69	=69	=69	=69	=69	=69	=69
4B\	6\ 5	2f#/]	1g#Xt	4B\	.	2d\	a-	2f#\]	.	1g#Xt	.	.	.	4B\
4G#X\	.	.	.	4G#X\	.	.	.	.	.	.	.	.	.	4G#X\
!	!	!LO:LB:g=original	!	!	!	!	!	!	!	!	!	!	!	!
4c#\	#	2e#Xt/	.	4c#\	.	2c#\	.	2e#X\	.	.	.	.	.	4c#\
4C#/	.	.	.	4C#/	.	.	.	.	.	.	.	.	.	4C#/
=70	=70	=70	=70	=70	=70	=70	=70	=70	=70	=70	=70	=70	=70	=70
4F#\	.	4f#/	4f#/	4F#\	-men	4c#\	-men	2f#\	-men	2f#/	-men	4r	4r	4F#\
4d\	5	4ff#\	8aa\L	4d\	a-	4r	.	.	.	.	.	4a/	4ff#\	4d\
.	.	.	8aa\J	.	.	.	.	.	.	.	.	.	.	.
4c#\	6	4een\	8aa\L	4c#\	.	2r	.	2r	.	2r	.	4a/	4ee\	4c#\
.	.	.	8aa\	.	.	.	.	.	.	.	.	.	.	.
4B\	7	4dd\	8aa\	4B\	.	.	.	.	.	.	.	4a/	4dd\	4B\
.	.	.	8aa\J	.	.	.	.	.	.	.	.	.	.	.
!	!	!	!	!	!	!	!	!LO:LB:g=original	!	!	!	!	!	!
=71	=71	=71	=71	=71	=71	=71	=71	=71	=71	=71	=71	=71	=71	=71
[1A	8	4cc#\	4aa\	[1A	.	4r	.	4r	.	4r	.	4a/	4ee\	[1A
.	6 4	4r	4r	.	.	4d\	a-	2a\	a-	4ff#\	a-	4r	4r	.
.	5 3	2r	2r	.	.	4c#\	.	.	.	4ee\	.	2r	2r	.
.	#7r 2	.	.	.	.	4B\	.	4g#X\	.	4dd\	.	.	.	.
!	!	!	!	!LO:LB:g=original	!	!	!	!	!	!LO:LB:g=original	!	!	!	!LO:LB:g=original
=72	=72	=72	=72	=72	=72	=72	=72	=72	=72	=72	=72	=72	=72	=72
4A\]	8 3	4r	4r	4A\]	.	4A/	-men	4e\	-men	4cc#\	-men	4r	4r	4A\]
4B\	5	4dd\	8ff#\L	4B\	.	4r	.	4r	.	4r	.	4f#/	4f#/	4B\
.	.	.	8ff#\J	.	.	.	.	.	.	.	.	.	.	.
4A\	6	4cc#\	8ff#\L	4A\	.	2r	.	2r	.	2r	.	4f#/	4f#/	4A\
.	.	.	8ff#\	.	.	.	.	.	.	.	.	.	.	.
4G\	7	4b/	8ff#\	4G\	.	.	.	.	.	.	.	4f#/	4f#/	4G\
.	.	.	8ff#\J	.	.	.	.	.	.	.	.	.	.	.
=73	=73	=73	=73	=73	=73	=73	=73	=73	=73	=73	=73	=73	=73	=73
[1F#	8	4a/	4ff#\	[1F#	.	4r	.	4r	.	4r	.	4f#/	4f#/	[1F#
.	6 4	4r	4r	.	.	2f#\	a-	4b\	a-	4dd\	a-	4r	4r	.
.	5 3	2r	2r	.	.	.	.	4a\	.	4cc#\	.	2r	2r	.
.	#7r #2r	.	.	.	.	4e#X\	.	4g#X\	.	4b\	.	.	.	.
!	!	!	!	!	!	!LO:LB:g=original	!	!	!	!	!	!	!	!
=74	=74	=74	=74	=74	=74	=74	=74	=74	=74	=74	=74	=74	=74	=74
4F#\]	8 3	4r	4r	4F#\]	.	4c#\	-men	4f#\	-men	4a\	-men	4r	4r	4F#\]
4G\	5	4b/	8dd\L	4G\	.	4r	.	4r	.	4r	.	4d/	4d/	4G\
.	.	.	8dd\J	.	.	.	.	.	.	.	.	.	.	.
!	!	!	!LO:LB:g=original	!	!	!	!	!	!	!	!	!	!	!
4F#\	6	4a/	8dd\L	4F#\	.	2r	.	2r	.	2r	.	4d/	4d/	4F#\
.	.	.	8dd\	.	.	.	.	.	.	.	.	.	.	.
4E\	7	4g/	8dd\	4E\	.	.	.	.	.	.	.	4d/	4d/	4E\
.	.	.	8dd\J	.	.	.	.	.	.	.	.	.	.	.
=75	=75	=75	=75	=75	=75	=75	=75	=75	=75	=75	=75	=75	=75	=75
2.D\	8	4f#/	4dd\	2.D\	-men	4r	.	4r	.	4r	.	4d/	4d/	2.D\
.	6 4	4r	4r	.	.	2d\	a-	4gn\	a-	4b\	a-	4r	4r	.
.	5 3	2r	2r	.	.	.	.	4f#\	.	4a\	.	2r	2r	.
4E\	6	.	.	4E\	a-	4c#\	.	4e\	.	4g/	.	.	.	4E\
!	!	!	!	!	!	!	!	!	!	!	!	!LO:LB:g=original	!	!
=76	=76	=76	=76	=76	=76	=76	=76	=76	=76	=76	=76	=76	=76	=76
!	!	!LO:TX:a:t=2.	!LO:TX:a:t=1.	!	!	!	!	!	!	!	!	!	!	!
4F#\	6	0r	1r	4F#\	.	4A/	men	2d\	-men	2f#/	-men	2.dd\	2.ff#\	4F#\
4D\	.	.	.	4D\	.	4F#/	a-	.	.	.	.	.	.	4D\
*	*	*	*	*	*	*	*	*	*ij	*	*ij	*	*	*
4F#\	.	.	.	4F#\	.	4A/	.	2dd\	a-	2ff#\	a-	.	.	4F#\
4G#X\	5	.	.	4G#X\	.	4B\	.	.	.	.	.	4dd\	4ff#\	4G#X\
!LO:LB:g=original	!	!	!	!	!	!	!	!	!	!	!	!	!	!
=77	=77	=77	=77	=77	=77	=77	=77	=77	=77	=77	=77	=77	=77	=77
2A\	.	.	2r	2A\	-men	2E/	-men	2cc#\	-men	2ee\	-men	2a/	2ee\	2A\
*	*	*	*	*	*	*	*	*	*Xij	*	*Xij	*	*	*
!	!	!	!	!	!	!	!	!LO:LB:g=original	!	!	!	!	!	!
2AA/	.	.	[2aa\	2AA/	a-	2r	.	[2a\	a-	2r	.	2r	2r	2AA/
=78	=78	=78	=78	=78	=78	=78	=78	=78	=78	=78	=78	=78	=78	=78
!LO:TX:b:i:t=Tasto Solo.	!	!	!	!	!	!	!	!	!	!	!	!LO:TX:a:t=1.	!	!LO:TX:b:i:t=T&colon; S&colon;
[1AA	.	[1dd	4aa\]	[1AA	.	[1B	a-	4a\]	.	[1dd	a-	1r	1r	[1AA
.	.	.	4aa\	.	.	.	.	4a\	.	.	.	.	.	.
.	.	.	4gg\	.	.	.	.	4g\	.	.	.	.	.	.
.	.	.	4ff#\	.	.	.	.	4f#\	.	.	.	.	.	.
=79	=79	=79	=79	=79	=79	=79	=79	=79	=79	=79	=79	=79	=79	=79
1AA_	.	4dd\]	[1gg	1AA_	.	4B\]	.	[1g	.	4dd\]	.	2a/	2a/	1AA_
.	.	4dd\	.	.	.	4B\	.	.	.	4dd\	.	.	.	.
.	.	4cc#\	.	.	.	4A/	.	.	.	4cc#\	.	2r	2r	.
.	.	4b\	.	.	.	4G/	.	.	.	4b\	.	.	.	.
!	!	!	!	!	!	!	!	!	!	!LO:LB:g=original	!	!	!LO:LB:g=original	!
=80	=80	=80	=80	=80	=80	=80	=80	=80	=80	=80	=80	=80	=80	=80
!	!	!	!	!	!	!	!	!	!	!	!	!LO:TX:a:t=1.	!LO:TX:a:t=1.	!
1AA_	.	[1cc#	4gg\]	1AA_	.	[1A	.	4g\]	.	[1cc#	.	1r	1r	1AA_
.	.	.	4gg\	.	.	.	.	4g\	.	.	.	.	.	.
.	.	.	4ff#\	.	.	.	.	4f#\	.	.	.	.	.	.
.	.	.	4ee\	.	.	.	.	4e\	.	.	.	.	.	.
!	!	!LO:LB:g=original	!	!LO:LB:g=original	!	!	!	!	!	!	!	!	!	!
=81	=81	=81	=81	=81	=81	=81	=81	=81	=81	=81	=81	=81	=81	=81
1AA_	.	4cc#\]	[1ff#	1AA_	.	4A/]	.	[1f#	.	4cc#\]	.	2a/	2a/	1AA_
.	.	4cc#\	.	.	.	4A/	.	.	.	4cc#\	.	.	.	.
.	.	4b/	.	.	.	4G/	.	.	.	4b\	.	2r	2r	.
.	.	4a/	.	.	.	4F#/	.	.	.	4a\	.	.	.	.
!	!	!	!	!	!	!LO:LB:g=original	!	!	!	!	!	!	!	!LO:LB:g=original
=82	=82	=82	=82	=82	=82	=82	=82	=82	=82	=82	=82	=82	=82	=82
!	!	!	!	!	!	!	!	!	!	!	!	!LO:TX:a:t=1.	!LO:TX:a:t=1.	!
1AA_	.	1b	4ff#\]	1AA_	.	[1G	.	4f#\]	.	1b	.	1r	1r	1AA_
.	.	.	4ff#\	.	.	.	.	4f#\	.	.	.	.	.	.
.	.	.	4ee\	.	.	.	.	4e\	.	.	.	.	.	.
.	.	.	4dd\	.	.	.	.	4d\	.	.	.	.	.	.
!	!	!	!LO:LB:g=original	!	!	!	!	!	!	!	!	!	!	!
=83	=83	=83	=83	=83	=83	=83	=83	=83	=83	=83	=83	=83	=83	=83
1AA_	.	2a/	4cc#\	1AA_	.	2G/]	.	2c#/	-men	2a\	-men	2a/	2a/	1AA_
.	.	.	4a/	.	.	.	.	.	.	.	.	.	.	.
.	.	2a/	[2dd\	.	.	2F#/	.	[2d\	a-	2a\	a-	2r	2r	.
=84	=84	=84	=84	=84	=84	=84	=84	=84	=84	=84	=84	=84	=84	=84
1AA]	.	1g	2dd\]	1AA]	.	1E	.	2d\]	.	1g	.	2a/	2a/	1AA]
.	.	.	2cc#t\	.	.	.	.	2c#/	.	.	.	2r	2r	.
!	!	!	!	!	!	!	!	!LO:LB:g=original	!	!	!	!	!	!
=85	=85	=85	=85	=85	=85	=85	=85	=85	=85	=85	=85	=85	=85	=85
2D\	.	4f#/	4dd\	2D/	-men	4D/	-men	2d\	-men	2f#/	-men	2dd\|	2ff#\	2D\
.	.	4dd\	4ff#\	.	.	4d\	a-	.	.	.	.	.	.	.
*	*	*	*	*	*ij	*	*	*	*ij	*	*ij	*	*	*
2A\	7	4cc#\	4ee\	2A\	a-	2e\	.	2g\	a-	2cc#\	a-	2a/|	2eeT\	2A\
.	.	4a/	4aa\	.	.	.	.	.	.	.	.	.	.	.
=86	=86	=86	=86	=86	=86	=86	=86	=86	=86	=86	=86	=86	=86	=86
.	.	.	8qqgg/	.	.	.	.	.	.	.	.	.	.	.
*	*	*2\right	*	*	*	*	*	*	*	*	*	*	*	*
2B\	5	2dd\	2ff#\	2B\	-men	2d\	-men	2f#\	-men	2dd\	-men	2f#/	2dd\	2B\
*	*	*	*	*	*Xij	*	*	*	*Xij	*	*Xij	*	*	*
4r	.	4r	4r	4r	.	4r	.	4r	.	4r	.	4r	4r	4r
4F#\	6	4f#/	4f#/	4F#\	a-	4d\	a-	4a\	a-	4dd\	a-	4a/	4dd\	4F#\
=87	=87	=87	=87	=87	=87	=87	=87	=87	=87	=87	=87	=87	=87	=87
2G\|	6 5	4e/	4e/	2G\	.	(2B\	.	(2g\	.	(2dd\	.	2dd\|	2dd\|	2G\|
.	.	4dd\	4dd\	.	.	.	.	.	.	.	.	.	.	.
2A\|	7	4A/	4A/	2A\	.	2A/)	.	2e\)	.	2cc#t\)	.	2a/|	2a/|	2A\|
.	.	4cc#\	4cc#\	.	.	.	.	.	.	.	.	.	.	.
!LO:LB:g=original	!	!	!	!	!	!	!	!	!	!	!	!	!	!
=88	=88	=88	=88	=88	=88	=88	=88	=88	=88	=88	=88	=88	=88	=88
2D\	.	2ff# 2a 2d/	2ff# 2a 2d/	2D/	-men.	2A/	-men.	2f#\	-men.	2dd\	-men.	2d/	2f#/	2D/
!LO:TX:b:i:t=Fine.	!	!LO:TX:b:i:t=Fine.	!LO:TX:b:i:t=Fine.	!LO:TX:b:i:t=Fine.	!	!LO:TX:b:i:t=Fine	!	!LO:TX:b:i:t=Fine	!	!LO:TX:b:i:t=Fine	!	!LO:TX:b:i:t=Fine	!LO:TX:b:i:t=Fine	!LO:TX:b:i:t=Fine
2r	.	2r	2r	2r	.	2r	.	2r	.	2r	.	2r	2r	2r
==	==	==	==	==	==	==	==	==	==	==	==	==	==	==
*-	*-	*-	*-	*-	*-	*-	*-	*-	*-	*-	*-	*-	*-	*-
!!!system-decoration: <s1>[(g1)][(g2)][(g3)]<s10>
!!!RDF**kern: > = above
!!!RDF**kern: < = below
!!!RDF**kern: | = vertical stroke
!!!ENC: Andrzej Kubiczek
!!!END: 2022-04-09
!!!AIN:
!!!ENC: Andrzej Kubiczek
!!!END: 2022-04-10
